Numix-GalliumOS/22/emblems/emblem-pictures.svg

<?xml version="1.0" encoding="UTF-8" standalone="no"?>
<svg
   xmlns:dc="http://purl.org/dc/elements/1.1/"
   xmlns:cc="http://creativecommons.org/ns#"
   xmlns:rdf="http://www.w3.org/1999/02/22-rdf-syntax-ns#"
   xmlns:svg="http://www.w3.org/2000/svg"
   xmlns="http://www.w3.org/2000/svg"
   xmlns:sodipodi="http://sodipodi.sourceforge.net/DTD/sodipodi-0.dtd"
   xmlns:inkscape="http://www.inkscape.org/namespaces/inkscape"
   width="22"
   height="22"
   viewBox="0 0 22 22"
   id="svg2"
   version="1.1"
   inkscape:version="0.91 r13725"
   sodipodi:docname="emblem-pictures.svg">
  <metadata
     id="metadata12">
    <rdf:RDF>
      <cc:Work
         rdf:about="">
        <dc:format>image/svg+xml</dc:format>
        <dc:type
           rdf:resource="http://purl.org/dc/dcmitype/StillImage" />
      </cc:Work>
    </rdf:RDF>
  </metadata>
  <defs
     id="defs10" />
  <sodipodi:namedview
     pagecolor="#ffffff"
     bordercolor="#666666"
     borderopacity="1"
     objecttolerance="10"
     gridtolerance="10"
     guidetolerance="10"
     inkscape:pageopacity="0"
     inkscape:pageshadow="2"
     inkscape:window-width="1366"
     inkscape:window-height="704"
     id="namedview8"
     showgrid="false"
     inkscape:object-nodes="true"
     inkscape:zoom="1"
     inkscape:cx="9.5921534"
     inkscape:cy="11"
     inkscape:window-x="0"
     inkscape:window-y="27"
     inkscape:window-maximized="1"
     inkscape:current-layer="svg2">
    <inkscape:grid
       type="xygrid"
       id="grid4140" />
  </sodipodi:namedview>
  <path
     style="fill:#fff;stroke:#777;stroke-width:.5"
     d="M 25.930955 35.186401 C 25.930955 42.09259 20.443729 47.693673 13.677926 47.693673 C 6.912124 47.693673 1.424898 42.09259 1.424898 35.186401 C 1.424898 28.280211 6.912124 22.679128 13.677926 22.679128 C 20.443729 22.679128 25.930955 28.280211 25.930955 35.186401 Z "
     transform="matrix(.73324 0 0 .71833 .97084 -14.27552)"
     id="path4" />
  <path
     style="opacity:1;fill:#427fec;fill-opacity:0.94117647;stroke:none;stroke-width:2;stroke-linecap:round;stroke-linejoin:round;stroke-miterlimit:4;stroke-dasharray:none;stroke-opacity:1"
     d="M 7 6 C 6.446 6 6 6.446 6 7 L 6 15 C 6 15.554 6.446 16 7 16 L 15 16 C 15.554 16 16 15.554 16 15 L 16 7 C 16 6.446 15.554 6 15 6 L 7 6 z M 7 7 L 15 7 L 15 14 L 7 14 L 7 7 z "
     id="rect4142" />
</svg>

<svg xmlns="http://www.w3.org/2000/svg" viewBox="0 0 22 22">
 <path d="m 25.931 35.19 c 0 6.906 -5.487 12.507 -12.253 12.507 c -6.766 0 -12.253 -5.601 -12.253 -12.507 c 0 -6.906 5.487 -12.507 12.253 -12.507 c 6.766 0 12.253 5.601 12.253 12.507 Z" transform="matrix(.73324 0 0 .71833 .97084 -14.27552)" style="fill:#fff;stroke:#777;stroke-width:0.5"/>
 <path d="m 7 6 c -0.554 0 -1 0.446 -1 1 l 0 8 c 0 0.554 0.446 1 1 1 l 8 0 c 0.554 0 1 -0.446 1 -1 l 0 -8 c 0 -0.554 -0.446 -1 -1 -1 l -8 0 z m 0 1 l 8 0 l 0 7 l -8 0 l 0 -7 z" style="fill:#427fec;opacity:1;fill-opacity:0.941;stroke:none"/>
</svg>
